X:1
T:Church Street
M:C|
L:1/8
Q:80
C:arr. Kent Hiestand
S:Polka
K:HP
{g}fd{gAGAG}A3/2{d}A/2 | \
{g}Bg{f}ge/2f/2 | \
{a}gB{d}cB |
{g}Aa{GdG}a{g}a/2g/2 | \
{a}fd{gAGAG}A3/2{d}A/2 | \
{g}Bg{f}ge/2f/2 |
{a}g/2f/2e/2d/2{g}c/2A/2B/2c/2|1
{g}df{Gdc}da/2g/2 :| | \
|2 {g}df{Gdc}df/2g/2|] |:
{ag}a2{gf}g2 | \
{Gdc}d3e | \
{g}f{e}f{g}e{A}e |
{GdG}c2{G}c3/2d/2 | \
{gef}e3/2f/2{g}ec | \
{gBd}B2{G}Bc/2B/2 |
{AGAG}A3/2B/2{g}cd|1
{gef}e3f/2g/2 :| | \
|2 {gef}e2{GdG}e2|]
